imgs/logo.svg

<svg xmlns="http://www.w3.org/2000/svg" viewBox="0 0 225.5 59">
  <title>logo</title>
  <g id="mid">
    <path d="M113.5,0c-28.72,0-52,13.21-52,29.5S84.78,59,113.5,59s52-13.21,52-29.5S142.22,0,113.5,0Zm0,52c-5,0-9-10.07-9-22.5s4-22.5,9-22.5,9,10.07,9,22.5S118.47,52,113.5,52Z" fill="#fbfc46"/>
  </g>
  <g id="r1">
    <path d="M205.5,29.5c0-16.29-10.75-29.5-24-29.5V59C194.75,59,205.5,45.79,205.5,29.5Z" fill="#fbfc46"/>
  </g>
  <g id="r2">
    <path d="M225.5,29.5C225.5,13.21,221,0,215.5,0V59C221,59,225.5,45.79,225.5,29.5Z" fill="#fbfc46"/>
  </g>
  <g id="l1">
    <path d="M21,29.5C21,45.79,31.75,59,45,59V0C31.75,0,21,13.21,21,29.5Z" fill="#fbfc46"/>
  </g>
  <g id="l2">
    <path d="M0,29.5C0,45.79,4.48,59,10,59V0C4.48,0,0,13.21,0,29.5Z" fill="#fbfc46"/>
  </g>
</svg>

<?xml version="1.0" encoding="utf-8"?>
<!-- Generator: Adobe Illustrator 24.0.3, SVG Export Plug-In . SVG Version: 6.00 Build 0)  -->
<svg version="1.1" id="Layer_1" xmlns="http://www.w3.org/2000/svg" xmlns:xlink="http://www.w3.org/1999/xlink" x="0px" y="0px"
	 viewBox="0 0 225.5 59" style="enable-background:new 0 0 225.5 59;" xml:space="preserve">
<style type="text/css">
	.st0{fill:#FBFC46;}
</style>
<title>logo</title>
<g id="mid">
	<path class="st0" d="M113.5,0c-28.7,0-52,13.2-52,29.5S84.8,59,113.5,59s52-13.2,52-29.5S142.2,0,113.5,0z M113.5,52
		c-5,0-9-10.1-9-22.5s4-22.5,9-22.5s9,10.1,9,22.5S118.5,52,113.5,52z"/>
</g>
<g id="r1">
	<path class="st0" d="M205.5,29.5c0-16.3-10.8-29.5-24-29.5v59C194.8,59,205.5,45.8,205.5,29.5z"/>
</g>
<g id="r2">
	<path class="st0" d="M225.5,29.5c0-16.3-4.5-29.5-10-29.5v59C221,59,225.5,45.8,225.5,29.5z"/>
</g>
<g id="l1">
	<path class="st0" d="M21,29.5C21,45.8,31.8,59,45,59V0C31.8,0,21,13.2,21,29.5z"/>
</g>
<g id="l2">
	<path class="st0" d="M0,29.5C0,45.8,4.5,59,10,59V0C4.5,0,0,13.2,0,29.5z"/>
</g>
<g id="Rstart">
	<path class="st0" d="M165.5,29.5c0-16.3-38.8-29.5-52-29.5v59C126.8,59,165.5,45.8,165.5,29.5z"/>
</g>
<g id="Lstart">
	<path class="st0" d="M61.5,29.5c0,16.3,38.8,29.5,52,29.5V0C100.2,0,61.5,13.2,61.5,29.5z"/>
</g>
<g id="Layer_4">
	<ellipse class="st0" cx="113.5" cy="29.5" rx="52" ry="29.5"/>
</g>
</svg>
